X:1
T:Title
%%score ( 1 2 ) { 3 | 4 }
L:1/8
Q:1/4=90
M:4/4
K:G
V:1 treble nm="Grand Piano, Soprano"
V:2 treble 
V:3 treble nm="Choir Pad, The Master’s Touch (Cherry)"
V:4 bass 
V:1
 [GB][GB][Fc][Fd] G2 [FA][FA] | [GB]2 cB [GB]2 [FA][FA] | [FA][FA][FB][Fc] [Gd]2 G[EA] | %3
w: By~Ada~Rose~Gibbs~(1864\-1905) * * * * * *|||
 [GB]2 [FA]2 G2 [GB][GB] | cB[Gc][GA] [GB]2 [GB][GB] | [Gc]2 [GB][GB] [GB]2 [=FA]2 | z4 .G2 z2 | %7
w: ||||
 [EG]2 [EG][EG] [FA]2 [=FB]2 | [Ec]2 [Ec][Ec] [Fc]2 [GB][GB] | [FA][GB] [Ac]2 [GB]2 [FA]2 | %10
w: |||
 GA[GB][GB] [FA]2 [DG][DG] | D-[DG][FA][GB] [Ac]2 [GB]2 | [FA]2 [FA][FA] [GB]2 [Ad][Ad] | %13
w: |||
 [EG][EG][FB][FB] [CE]2 [DG]2 | [FA]2 [GB][GB] [EB][EB] [EA]2 | G[GA][GB]c [FA]4 | [FA]4 G4 | %17
w: ||||
 [GB][GB][Fc][Fd] G2 [FA][FA] | [GB]2 cB [GB]2 [FA][FA] | [FA][FA][FB][Fc] [Gd]2 G[EA] | %20
w: |||
 [GB]2 [FA]2 G2 [GB][GB] | cB[Gc][GA] [GB]2 [GB][GB] | [Gc]2 [GB][GB] [GB]2 [=FA]2 | z4 .G2 z2 | %24
w: ||||
 [EG]2 [EG][EG] [FA]2 [=FB]2 | [Ec]2 [Ec][Ec] [Fc]2 [GB][GB] | [FA][GB] [Ac]2 [GB]2 [FA]2 | %27
w: |||
 GA[GB][GB] [FA]2 [DG][DG] | D-[DG][FA][GB] [Ac]2 [GB]2 | [FA]2 [FA][FA] [GB]2 [Ad][Ad] | %30
w: |||
 [EG][EG][FB][FB] [CE]2 [DG]2 | [FA]2 [GB][GB] [EB][EB] [EA]2 | G[GA][GB]c [FA]4 | [FA]4 G4 | %34
w: ||||
 [GB][GB][Fc][Fd] G2 [FA][FA] | [GB]2 cB [GB]2 [FA][FA] | [FA][FA][FB][Fc] [Gd]2 G[EA] | %37
w: |||
 [GB]2 [FA]2 G2 [GB][GB] | cB[Gc][GA] [GB]2 [GB][GB] | [Gc]2 [GB][GB] [GB]2 [=FA]2 | z4 .G2 z2 | %41
w: ||||
 [EG]2 [EG][EG] [FA]2 [=FB]2 | [Ec]2 [Ec][Ec] [Fc]2 [GB][GB] | [FA][GB] [Ac]2 [GB]2 [FA]2 | %44
w: |||
 GA[GB][GB] [FA]2 [DG][DG] | D-[DG][FA][GB] [Ac]2 [GB]2 | [FA]2 [FA][FA] [GB]2 [Ad][Ad] | %47
w: |||
 [EG][EG][FB][FB] [CE]2 [DG]2 | [FA]2 [GB][GB] [EB][EB] [EA]2 | G[GA][GB]c [FA]4 | [FA]4 G4 | %51
w: ||||
 [DG]2 [DG][FA] [GB]2 [GB][GB] | [Gc]2 [GB]2 [FA]2 [GB]2 | z2 [GB]2 [FB]2 [FA][FA] | %54
w: |||
 [EG][EA]Bc [FA]4 | [FA]4 G4- | G4 z4 |] %57
w: |||
V:2
 x8 | z2 G2 z4 | x8 | x8 | G2 z2 z4 | x8 | z2 [=FA][FA] E-[E^G][E=G][EG] | x8 | x8 | x8 | x8 | %11
 .F2 z2 z4 | x8 | x8 | x8 | x8 | x8 | x8 | z2 G2 z4 | x8 | x8 | G2 z2 z4 | x8 | %23
 z2 [=FA][FA] E-[E^G][E=G][EG] | x8 | x8 | x8 | x8 | .F2 z2 z4 | x8 | x8 | x8 | x8 | x8 | x8 | %35
 z2 G2 z4 | x8 | x8 | G2 z2 z4 | x8 | z2 [=FA][FA] E-[E^G][E=G][EG] | x8 | x8 | x8 | x8 | %45
 .F2 z2 z4 | x8 | x8 | x8 | x8 | x8 | x8 | x8 | x8 | z2 G2 z4 | x8 | x8 |] %57
V:3
 DDDD D2 DD | D2 ED D2 DD | DDDD D2 DE | D2 C2 B,2 DD | EDEC D2 DD | C2 CC C2 C2 | z2 CC C2 CC | %7
 C2 CC D2 D2 | C2 CC A,2 DD | DD D2 D2 C2 | B,CDD C2[K:bass] B,B, | A,B,CD F,2 G,2 | D2 DD D2 DD | %13
 B,B,B,B, G,2 G,2 | D2 DD CC C2 | B,C D2 C4 | C4 B,4 | DDDD D2 DD | D2 ED D2 DD | DDDD D2 DE | %20
 D2 C2 B,2 DD | EDEC D2 DD | C2 CC C2 C2 | z2 CC C2 CC | C2 CC D2 D2 | C2 CC A,2 DD | DD D2 D2 C2 | %27
 B,CDD C2[K:bass] B,B, | A,B,CD F,2 G,2 | D2 DD D2 DD | B,B,B,B, G,2 G,2 | D2 DD CC C2 | %32
 B,C D2 C4 | C4 B,4 | DDDD D2 DD | D2 ED D2 DD | DDDD D2 DE | D2 C2 B,2 DD | EDEC D2 DD | %39
 C2 CC C2 C2 | z2 CC C2 CC | C2 CC D2 D2 | C2 CC A,2 DD | DD D2 D2 C2 | B,CDD C2[K:bass] B,B, | %45
 A,B,CD F,2 G,2 | D2 DD D2 DD | B,B,B,B, G,2 G,2 | D2 DD CC C2 | B,C D2 C4 | C4[K:bass] B,4 | %51
 B,2 B,D D2[K:treble] DD | E2 D2 D2 D2 | z2[K:bass] D2 B,2 B,B, | B,B,[K:treble] E2 C4 | C4 B,4- | %56
 B,4 z4 |] %57
V:4
 G,G,A,A, B,2 D,D, | G,2 G,2 D,2 D,D, | CCCC B,2 B,C | z2[K:bass] D,2 G,2 G,G, | %4
 G,2 G,G, G,2 =F,F, | E,2 E,E, =F,2 F,2 | z2 =F,F, G,2 G,G, | G,2 G,G, G,2 G,2 | %8
 C,2 C,C, D,2 D,D, | D,D, D,2 D,2 D,2 | D,2 D,D, D,2 D,D, | D,2 D,D, D,2 D,2 | D,2 D,D, G,2 G,G, | %13
 E,E,D,D, C,2 B,,2 | A,,2 G,,G,, C,C, C,2 | D,D, D,2 D,4 | D,4 G,4 | G,G,A,A, B,2 D,D, | %18
 G,2 G,2 D,2 D,D, | CCCC B,2 B,C | z2[K:bass] D,2 G,2 G,G, | G,2 G,G, G,2 =F,F, | %22
 E,2 E,E, =F,2 F,2 | z2 =F,F, G,2 G,G, | G,2 G,G, G,2 G,2 | C,2 C,C, D,2 D,D, | D,D, D,2 D,2 D,2 | %27
 D,2 D,D, D,2 D,D, | D,2 D,D, D,2 D,2 | D,2 D,D, G,2 G,G, | E,E,D,D, C,2 B,,2 | %31
 A,,2 G,,G,, C,C, C,2 | D,D, D,2 D,4 | D,4 G,4 | G,G,A,A, B,2 D,D, | G,2 G,2 D,2 D,D, | %36
 CCCC B,2 B,C | z2[K:bass] D,2 G,2 G,G, | G,2 G,G, G,2 =F,F, | E,2 E,E, =F,2 F,2 | %40
 z2 =F,F, G,2 G,G, | G,2 G,G, G,2 G,2 | C,2 C,C, D,2 D,D, | D,D, D,2 D,2 D,2 | D,2 D,D, D,2 D,D, | %45
 D,2 D,D, D,2 D,2 | D,2 D,D, G,2 G,G, | E,E,D,D, C,2 B,,2 | A,,2 G,,G,, C,C, C,2 | D,D, D,2 D,4 | %50
 D,4 G,4 | G,2 G,D, G,2 G,G, | C,2 G,2 D,2 G,2 | z2 G,2 ^D,2 D,D, | E,E, C,2 D,4 | D,4 G,4- | %56
 G,4 z4 |] %57

